; generated by PrusaSlicer 2.5.0+MacOS-arm64 on 2022-09-27 at 13:30:56 UTC


;
;
; 

; external perimeters extrusion width = 0.60mm
; perimeters extrusion width = 0.50mm
; infill extrusion width = 0.50mm
; solid infill extrusion width = 0.50mm
; top infill extrusion width = 0.45mm
; support material extrusion width = 0.38mm
; first layer extrusion width = 0.42mm

; external perimeters extrusion width = 0.60mm
; perimeters extrusion width = 0.50mm
; infill extrusion width = 0.50mm
; solid infill extrusion width = 0.50mm
; top infill extrusion width = 0.45mm
; support material extrusion width = 0.38mm
; first layer extrusion width = 0.42mm

; external perimeters extrusion width = 0.60mm
; perimeters extrusion width = 0.50mm
; infill extrusion width = 0.50mm
; solid infill extrusion width = 0.50mm
; top infill extrusion width = 0.45mm
; support material extrusion width = 0.38mm
; first layer extrusion width = 0.42mm

; external perimeters extrusion width = 0.60mm
; perimeters extrusion width = 0.50mm
; infill extrusion width = 0.50mm
; solid infill extrusion width = 0.50mm
; top infill extrusion width = 0.45mm
; support material extrusion width = 0.38mm
; first layer extrusion width = 0.42mm

; external perimeters extrusion width = 0.60mm
; perimeters extrusion width = 0.50mm
; infill extrusion width = 0.50mm
; solid infill extrusion width = 0.50mm
; top infill extrusion width = 0.45mm
; support material extrusion width = 0.38mm
; first layer extrusion width = 0.42mm

; external perimeters extrusion width = 0.60mm
; perimeters extrusion width = 0.50mm
; infill extrusion width = 0.50mm
; solid infill extrusion width = 0.50mm
; top infill extrusion width = 0.45mm
; support material extrusion width = 0.38mm
; first layer extrusion width = 0.42mm

M73 P0 R51
M73 Q0 S51
M201 X1000 Y1000 Z200 E5000 ; sets maximum accelerations, mm/sec^2
M203 X200 Y200 Z12 E120 ; sets maximum feedrates, mm / sec
M204 P1250 R1250 T1250 ; sets acceleration (P, T) and retract acceleration (R), mm/sec^2
M205 X8.00 Y8.00 Z0.40 E4.50 ; sets the jerk limits, mm/sec
M205 S0 T0 ; sets the minimum extruding and travel feed rate, mm/sec
M107
;TYPE:Custom
M862.3 P "MK3S" ; printer model check
M862.1 P0.4 ; nozzle diameter check
M115 U3.11.0 ; tell printer latest fw version
G90 ; use absolute coordinates
M83 ; extruder relative mode
M104 S215 ; set extruder temp
M140 S60 ; set bed temp
M190 S60 ; wait for bed temp
M109 S215 ; wait for extruder temp
G28 W ; home all without mesh bed level
G80 ; mesh bed leveling

G1 Z0.2 F720
G1 Y-3 F1000 ; go outside print area
G92 E0
G1 X60 E9 F1000 ; intro line
G1 X100 E12.5 F1000 ; intro line

G92 E0
M221 S95

; Don't change E values below. Excessive value can damage the printer.

M907 E538 ; set extruder motor current
G21 ; set units to millimeters
G90 ; use absolute coordinates
M83 ; use relative distances for extrusion
M900 K0.05 ; Filament gcode LA 1.5
M900 K30 ; Filament gcode LA 1.0
M107
;LAYER_CHANGE
;Z:0.2
;HEIGHT:0.2
;BEFORE_LAYER_CHANGE
G92 E0.0
;0.2


G1 E-.8 F2100
G1 Z.4 F720
;AFTER_LAYER_CHANGE
;0.2
G1 X103.885 Y84.563 F10800
G1 Z.2 F720
G1 E.8 F2100
M204 S800
;TYPE:Skirt/Brim
;WIDTH:0.42
G1 F1200
G1 X104.93 Y83.687 E.04278
G1 X105.87 Y83.493 E.03008
G1 X144.13 Y83.493 E1.19962
G1 X145.437 Y83.885 E.04278
G1 X146.313 Y84.93 E.04278
G1 X146.507 Y85.87 E.03008
G1 X146.507 Y124.13 E1.19962
G1 X146.115 Y125.437 E.04278
G1 X145.07 Y126.313 E.04278
G1 X144.13 Y126.507 E.03008
G1 X105.87 Y126.507 E1.19962
G1 X104.563 Y126.115 E.04278
G1 X103.687 Y125.07 E.04278
G1 X103.493 Y124.13 E.03008
G1 X103.493 Y85.87 E1.19962
G1 X103.867 Y84.62 E.0409
M204 S1000
; printing object box6.stl id:1 copy 0
;WIPE_START
G1 F8640
G1 X104.93 Y83.687 E-.32671
G1 X105.87 Y83.493 E-.22155
G1 X106.787 Y83.493 E-.21174
;WIPE_END
G1 E-.04 F2100
G1 Z.6 F720
G1 X143.63 Y86.37 F10800
G1 Z.2 F720
M73 P0 R50
G1 E.8 F2100
M204 S800
;TYPE:External perimeter
;WIDTH:0.466375
G1 F1200
G1 X143.698 Y86.976 E.02147
;WIDTH:0.419876
G1 X143.698 Y123.031 E1.13012
;WIDTH:0.466375
G1 X143.63 Y123.63 E.02122
G1 X143.024 Y123.698 E.02147
;WIDTH:0.419876
G1 X106.969 Y123.698 E1.13012
;WIDTH:0.466377
G1 X106.37 Y123.63 E.02122
G1 X106.302 Y123.024 E.02147
;WIDTH:0.419877
G1 X106.302 Y86.976 E1.1299
G1 X106.302 Y86.969 E.00022
;WIDTH:0.466377
G1 X106.37 Y86.37 E.02122
G1 X106.976 Y86.302 E.02147
;WIDTH:0.419875
G1 X143.031 Y86.302 E1.13011
;WIDTH:0.466375
G1 X143.57 Y86.363 E.01911
M204 S1000
;WIPE_START
G1 F8640
G1 X143.698 Y86.976 E-.14452
G1 X143.698 Y89.641 E-.61548
;WIPE_END
G1 E-.04 F2100
G1 Z.6 F720
G1 X143.283 Y123.283 F10800
G1 Z.2 F720
G1 E.8 F2100
M204 S800
G1 F1200
G1 X143.017 Y123.321 E.00945
;WIDTH:0.419876
G1 X106.983 Y123.321 E1.12946
;WIDTH:0.466377
G1 X106.717 Y123.283 E.00945
G1 X106.679 Y123.017 E.00945
;WIDTH:0.419877
G1 X106.681 Y86.867 E1.13309
;WIDTH:0.440975
G1 X106.699 Y86.792 E.00255
;WIDTH:0.466377
G1 X106.717 Y86.717 E.00271
G1 X106.983 Y86.679 E.00945
;WIDTH:0.419876
G1 X143.017 Y86.679 E1.12946
;WIDTH:0.466375
G1 X143.283 Y86.717 E.00945
G1 X143.321 Y86.983 E.00945
;WIDTH:0.419876
G1 X143.321 Y123.017 E1.12946
;WIDTH:0.466375
G1 X143.291 Y123.223 E.00734
M204 S1000
; stop printing object box6.stl id:1 copy 0
; printing object box2.stl id:5 copy 0
;WIPE_START
M73 P1 R50
M73 Q1 S51
G1 F8640
G1 X143.017 Y123.321 E-.06726
G1 X140.017 Y123.321 E-.69274
;WIPE_END
G1 E-.04 F2100
G1 Z.6 F720
G1 X135.63 Y94.37 F10800
G1 Z.2 F720
G1 E.8 F2100
M204 S800
;WIDTH:0.46638
G1 F1200
G1 X135.698 Y94.967 E.02117
;WIDTH:0.419801
G1 X135.698 Y115.04 E.62902
;WIDTH:0.46638
G1 X135.63 Y115.63 E.02092
G1 X135.033 Y115.698 E.02117
;WIDTH:0.419802
G1 X114.96 Y115.698 E.62902
;WIDTH:0.46638
G1 X114.37 Y115.63 E.02092
G1 X114.302 Y115.033 E.02117
;WIDTH:0.419801
M73 Q1 S50
G1 X114.302 Y94.967 E.62879
G1 X114.302 Y94.96 E.00022
;WIDTH:0.46638
G1 X114.37 Y94.37 E.02092
G1 X114.967 Y94.302 E.02117
;WIDTH:0.4198
G1 X135.04 Y94.302 E.62901
;WIDTH:0.46638
G1 X135.57 Y94.363 E.01881
M204 S1000
;WIPE_START
G1 F8640
G1 X135.698 Y94.967 E-.14261
G1 X135.698 Y97.641 E-.61739
;WIPE_END
G1 E-.04 F2100
G1 Z.6 F720
G1 X114.717 Y94.717 F10800
G1 Z.2 F720
G1 E.8 F2100
M204 S800
G1 F1200
G1 X114.975 Y94.679 E.00916
;WIDTH:0.419801
G1 X135.025 Y94.679 E.62835
;WIDTH:0.46638
G1 X135.283 Y94.717 E.00916
G1 X135.321 Y94.975 E.00916
;WIDTH:0.419801
G1 X135.321 Y115.025 E.62835
;WIDTH:0.46638
G1 X135.283 Y115.283 E.00916
G1 X135.025 Y115.321 E.00916
;WIDTH:0.419802
G1 X114.975 Y115.321 E.62835
;WIDTH:0.46638
G1 X114.717 Y115.283 E.00916
G1 X114.679 Y115.025 E.00916
;WIDTH:0.419801
G1 X114.681 Y94.867 E.63172
;WIDTH:0.441062
G1 X114.699 Y94.792 E.00255
;WIDTH:0.46638
G1 X114.703 Y94.776 E.0006
M204 S1000
; stop printing object box2.stl id:5 copy 0
; printing object box4.stl id:3 copy 0
;WIPE_START
G1 F8640
G1 X114.975 Y94.679 E-.06659
G1 X117.978 Y94.679 E-.69341
;WIPE_END
G1 E-.04 F2100
G1 Z.6 F720
G1 X139.63 Y90.37 F10800
G1 Z.2 F720
G1 E.8 F2100
M204 S800
;WIDTH:0.466379
G1 F1200
G1 X139.698 Y90.973 E.02136
;WIDTH:0.419851
G1 X139.698 Y119.034 E.8795
;WIDTH:0.466379
G1 X139.63 Y119.63 E.02111
G1 X139.027 Y119.698 E.02136
;WIDTH:0.41985
G1 X110.966 Y119.698 E.8795
;WIDTH:0.46638
G1 X110.37 Y119.63 E.02111
G1 X110.302 Y119.027 E.02136
;WIDTH:0.419851
G1 X110.302 Y90.973 E.87928
G1 X110.302 Y90.966 E.00022
;WIDTH:0.46638
G1 X110.37 Y90.37 E.02111
G1 X110.973 Y90.302 E.02136
;WIDTH:0.41985
G1 X139.034 Y90.302 E.8795
;WIDTH:0.466379
G1 X139.57 Y90.363 E.019
M204 S1000
G1 X139.283 Y90.717 F10800
M204 S800
G1 F1200
G1 X139.321 Y90.98 E.00934
;WIDTH:0.419851
G1 X139.321 Y119.02 E.87884
;WIDTH:0.466379
G1 X139.283 Y119.283 E.00934
G1 X139.02 Y119.321 E.00934
;WIDTH:0.41985
G1 X110.98 Y119.321 E.87884
;WIDTH:0.46638
G1 X110.717 Y119.283 E.00934
G1 X110.679 Y119.02 E.00934
;WIDTH:0.419851
G1 X110.681 Y90.853 E.88281
;WIDTH:0.44075
G1 X110.699 Y90.785 E.00232
;WIDTH:0.46638
G1 X110.717 Y90.717 E.00247
G1 X110.98 Y90.679 E.00934
;WIDTH:0.419851
G1 X139.02 Y90.679 E.87884
;WIDTH:0.466379
G1 X139.223 Y90.709 E.00723
M204 S1000
; stop printing object box4.stl id:3 copy 0
; printing object box3.stl id:0 copy 0
;WIPE_START
G1 F8640
G1 X139.321 Y90.98 E-.06661
G1 X139.321 Y93.983 E-.69339
;WIPE_END
G1 E-.04 F2100
G1 Z.6 F720
G1 X137.63 Y92.37 F10800
G1 Z.2 F720
G1 E.8 F2100
M204 S800
G1 F1200
G1 X137.698 Y92.971 E.02128
;WIDTH:0.41983
G1 X137.698 Y117.037 E.75423
;WIDTH:0.466379
G1 X137.63 Y117.63 E.02103
G1 X137.029 Y117.698 E.02128
;WIDTH:0.41983
G1 X112.963 Y117.698 E.75423
;WIDTH:0.46638
G1 X112.37 Y117.63 E.02103
G1 X112.302 Y117.029 E.02128
;WIDTH:0.419831
G1 X112.302 Y92.971 E.75401
G1 X112.302 Y92.963 E.00022
;WIDTH:0.46638
G1 X112.37 Y92.37 E.02103
G1 X112.971 Y92.302 E.02128
;WIDTH:0.419829
G1 X137.037 Y92.302 E.75423
;WIDTH:0.466379
G1 X137.57 Y92.363 E.01892
M204 S1000
G1 X137.283 Y92.717 F10800
M204 S800
G1 F1200
G1 X137.321 Y92.978 E.00927
;WIDTH:0.41983
G1 X137.321 Y117.022 E.75357
;WIDTH:0.466379
G1 X137.283 Y117.283 E.00927
G1 X137.022 Y117.321 E.00927
;WIDTH:0.41983
G1 X112.978 Y117.321 E.75357
;WIDTH:0.46638
G1 X112.717 Y117.283 E.00927
M73 Q2 S50
G1 X112.679 Y117.022 E.00927
;WIDTH:0.419831
G1 X112.681 Y92.867 E.75704
;WIDTH:0.441032
G1 X112.699 Y92.792 E.00255
;WIDTH:0.46638
M73 P2 R50
G1 X112.717 Y92.717 E.00271
G1 X112.978 Y92.679 E.00927
;WIDTH:0.41983
G1 X137.022 Y92.679 E.75357
;WIDTH:0.466379
G1 X137.223 Y92.708 E.00715
M204 S1000
; stop printing object box3.stl id:0 copy 0
; printing object box1.stl id:4 copy 0
;WIPE_START
G1 F8640
G1 X137.321 Y92.978 E-.06615
G1 X137.321 Y95.983 E-.69385
;WIPE_END
G1 E-.04 F2100
G1 Z.6 F720
G1 X133.63 Y96.37 F10800
G1 Z.2 F720
G1 E.8 F2100
M204 S800
;WIDTH:0.46638
G1 F1200
G1 X133.698 Y96.963 E.02101
;WIDTH:0.419755
G1 X133.698 Y113.044 E.50388
;WIDTH:0.46638
G1 X133.63 Y113.63 E.02076
G1 X133.037 Y113.698 E.02102
;WIDTH:0.419755
G1 X116.956 Y113.698 E.50388
;WIDTH:0.46638
G1 X116.37 Y113.63 E.02076
G1 X116.302 Y113.037 E.02102
;WIDTH:0.419756
G1 X116.302 Y96.963 E.50366
G1 X116.302 Y96.956 E.00022
;WIDTH:0.46638
G1 X116.37 Y96.37 E.02076
G1 X116.963 Y96.302 E.02101
;WIDTH:0.419754
G1 X133.044 Y96.302 E.50388
;WIDTH:0.46638
G1 X133.57 Y96.363 E.01865
M204 S1000
G1 X133.283 Y96.717 F10800
M204 S800
G1 F1200
G1 X133.321 Y96.97 E.00901
;WIDTH:0.419755
G1 X133.321 Y113.03 E.50321
;WIDTH:0.46638
G1 X133.283 Y113.283 E.00901
G1 X133.03 Y113.321 E.00901
;WIDTH:0.419755
G1 X116.97 Y113.321 E.50321
;WIDTH:0.46638
G1 X116.717 Y113.283 E.00901
G1 X116.679 Y113.03 E.00901
;WIDTH:0.419756
G1 X116.681 Y96.867 E.50644
;WIDTH:0.441106
G1 X116.699 Y96.792 E.00255
;WIDTH:0.46638
G1 X116.717 Y96.717 E.00271
G1 X116.97 Y96.679 E.00901
;WIDTH:0.419755
G1 X133.03 Y96.679 E.50321
;WIDTH:0.46638
G1 X133.223 Y96.708 E.0069
M204 S1000
; stop printing object box1.stl id:4 copy 0
; printing object box5.stl id:2 copy 0
;WIPE_START
G1 F8640
G1 X133.321 Y96.97 E-.06461
G1 X133.321 Y99.982 E-.69539
;WIPE_END
G1 E-.04 F2100
G1 Z.6 F720
G1 X141.63 Y88.37 F10800
G1 Z.2 F720
G1 E.8 F2100
M204 S800
;WIDTH:0.466378
G1 F1200
G1 X141.698 Y88.974 E.02142
;WIDTH:0.419865
G1 X141.698 Y121.033 E1.0048
;WIDTH:0.466378
G1 X141.63 Y121.63 E.02117
G1 X141.026 Y121.698 E.02142
;WIDTH:0.419865
G1 X108.967 Y121.698 E1.0048
;WIDTH:0.466378
G1 X108.37 Y121.63 E.02117
G1 X108.302 Y121.026 E.02142
;WIDTH:0.419865
G1 X108.302 Y88.974 E1.00458
G1 X108.302 Y88.967 E.00022
;WIDTH:0.466379
M73 P2 R49
G1 X108.37 Y88.37 E.02117
G1 X108.974 Y88.302 E.02142
;WIDTH:0.419864
G1 X141.033 Y88.302 E1.0048
;WIDTH:0.466378
G1 X141.57 Y88.363 E.01906
M204 S1000
G1 X141.283 Y88.717 F10800
M204 S800
G1 F1200
G1 X141.321 Y88.982 E.0094
;WIDTH:0.419865
G1 X141.321 Y121.019 E1.00414
;WIDTH:0.466378
G1 X141.283 Y121.283 E.0094
G1 X141.018 Y121.321 E.0094
;WIDTH:0.419865
G1 X108.982 Y121.321 E1.00414
;WIDTH:0.466378
G1 X108.717 Y121.283 E.0094
G1 X108.679 Y121.018 E.0094
;WIDTH:0.419865
G1 X108.681 Y88.867 E1.00773
;WIDTH:0.44099
G1 X108.699 Y88.792 E.00255
;WIDTH:0.466379
G1 X108.717 Y88.717 E.00271
G1 X108.982 Y88.679 E.0094
;WIDTH:0.419865
G1 X141.019 Y88.679 E1.00414
;WIDTH:0.466378
G1 X141.223 Y88.709 E.00729
M204 S1000
; stop printing object box5.stl id:2 copy 0
M106 S84.15
;LAYER_CHANGE
;Z:0.5
;HEIGHT:0.3
;BEFORE_LAYER_CHANGE
G92 E0.0
;0.5


;WIPE_START
G1 F8640
G1 X141.321 Y88.982 E-.06697
G1 X141.321 Y91.983 E-.69303
;WIPE_END
G1 E-.04 F2100
G1 Z.6 F720
;AFTER_LAYER_CHANGE
;0.5
G1 X146.507 Y91.983 F10800
G1 Z.5 F720
G1 E.8 F2100
;TYPE:Skirt/Brim
;WIDTH:0.42
G1 F2700
G1 X146.507 Y124.13 E1.42588
G1 X146.115 Y125.437 E.06052
G1 X145.07 Y126.313 E.06052
G1 X144.13 Y126.507 E.04256
G1 X105.87 Y126.507 E1.69702
G1 X104.563 Y126.115 E.06052
G1 X103.687 Y125.07 E.06052
G1 X103.493 Y124.13 E.04256
G1 X103.493 Y85.87 E1.69702
G1 X103.885 Y84.563 E.06052
G1 X104.93 Y83.687 E.06052
G1 X105.87 Y83.493 E.04256
G1 X144.13 Y83.493 E1.69702
G1 X145.437 Y83.885 E.06052
G1 X146.313 Y84.93 E.06052
G1 X146.507 Y85.87 E.04256
G1 X146.507 Y91.923 E.26847
; printing object box6.stl id:1 copy 0
;WIPE_START
G1 F8640
G1 X146.507 Y95.214 E-.76
;WIPE_END
G1 E-.04 F2100
G1 Z.9 F720
G1 X143.471 Y86.225 F10800
G1 Z.5 F720
G1 E.8 F2100
M204 S800
;TYPE:External perimeter
;WIDTH:0.624055
G1 X143.758 Y86.242 E.02008
G1 X143.778 Y86.58 E.02362
;WIDTH:0.583073
G1 X143.799 Y86.918 E.02189
;WIDTH:0.542092
G1 X143.799 Y123.082 E2.1548
;WIDTH:0.545711
G1 X143.797 Y123.166 E.00499
;WIDTH:0.584882
G1 X143.778 Y123.462 E.01927
;WIDTH:0.624055
G1 X143.758 Y123.758 E.02072
G1 X143.42 Y123.778 E.02362
;WIDTH:0.583073
G1 X143.082 Y123.799 E.02189
;WIDTH:0.542093
G1 X106.918 Y123.799 E2.1548
;WIDTH:0.583073
G1 X106.58 Y123.778 E.02189
;WIDTH:0.624054
G1 X106.242 Y123.758 E.02362
G1 X106.222 Y123.42 E.02362
;WIDTH:0.583073
G1 X106.201 Y123.082 E.02189
;WIDTH:0.542093
G1 X106.201 Y86.918 E2.1548
;WIDTH:0.583073
G1 X106.222 Y86.58 E.02189
;WIDTH:0.624054
M73 P3 R49
M73 Q3 S50
G1 X106.242 Y86.242 E.02362
G1 X106.58 Y86.222 E.02362
;WIDTH:0.583073
G1 X106.918 Y86.201 E.02189
;WIDTH:0.542093
G1 X143.082 Y86.201 E2.1548
;WIDTH:0.583073
G1 X143.411 Y86.221 E.0213
M204 S1000
;WIPE_START
G1 F8640
G1 X143.758 Y86.242 E-.08027
G1 X143.778 Y86.58 E-.07814
G1 X143.799 Y86.918 E-.07814
G1 X143.799 Y89.185 E-.52344
;WIPE_END
G1 E-.04 F2100
G1 Z.9 F720
G1 X143.301 Y123.181 F10800
M73 Q3 S49
G1 Z.5 F720
G1 E.8 F2100
M204 S800
;WIDTH:0.624055
G1 X143.28 Y123.28 E.00705
G1 X143.181 Y123.301 E.00705
;WIDTH:0.583073
G1 X143.082 Y123.321 E.00654
;WIDTH:0.542093
G1 X106.918 Y123.321 E2.1548
;WIDTH:0.583073
G1 X106.819 Y123.301 E.00654
;WIDTH:0.624054
G1 X106.72 Y123.28 E.00705
G1 X106.699 Y123.181 E.00705
;WIDTH:0.583073
G1 X106.679 Y123.082 E.00654
;WIDTH:0.542093
G1 X106.679 Y86.918 E2.1548
;WIDTH:0.583073
G1 X106.699 Y86.819 E.00654
;WIDTH:0.624054
G1 X106.72 Y86.72 E.00705
G1 X106.819 Y86.699 E.00705
;WIDTH:0.583073
G1 X106.918 Y86.679 E.00654
;WIDTH:0.542093
G1 X143.082 Y86.679 E2.1548
;WIDTH:0.583073
G1 X143.181 Y86.699 E.00654
;WIDTH:0.624055
G1 X143.28 Y86.72 E.00705
G1 X143.301 Y86.819 E.00705
;WIDTH:0.583073
G1 X143.321 Y86.918 E.00654
;WIDTH:0.542092
G1 X143.321 Y123.082 E2.1548
;WIDTH:0.583073
G1 X143.313 Y123.123 E.00265
M204 S1000
; stop printing object box6.stl id:1 copy 0
; printing object box2.stl id:5 copy 0
;WIPE_START
G1 F8640
G1 X143.28 Y123.28 E-.03718
G1 X143.181 Y123.301 E-.02333
G1 X143.082 Y123.321 E-.02333
G1 X140.154 Y123.321 E-.67616
;WIPE_END
G1 E-.04 F2100
G1 Z.9 F720
G1 X135.471 Y94.225 F10800
G1 Z.5 F720
G1 E.8 F2100
M204 S800
;WIDTH:0.624055
G1 X135.758 Y94.242 E.02007
G1 X135.778 Y94.58 E.02362
;WIDTH:0.583073
G1 X135.799 Y94.918 E.02189
;WIDTH:0.542092
G1 X135.799 Y115.082 E1.20147
;WIDTH:0.545711
G1 X135.797 Y115.166 E.00499
;WIDTH:0.584882
G1 X135.778 Y115.462 E.01927
;WIDTH:0.624055
G1 X135.758 Y115.758 E.02072
G1 X135.42 Y115.778 E.02362
;WIDTH:0.583073
G1 X135.082 Y115.799 E.02189
;WIDTH:0.542093
G1 X114.918 Y115.799 E1.20148
;WIDTH:0.583073
G1 X114.58 Y115.778 E.02189
;WIDTH:0.624054
G1 X114.242 Y115.758 E.02362
G1 X114.222 Y115.42 E.02362
;WIDTH:0.583073
G1 X114.201 Y115.082 E.02189
;WIDTH:0.542093
